icon-themes/elementary_svg/cmd/lc_insertslide.svg

<svg height="24" width="24" xmlns="http://www.w3.org/2000/svg" xmlns:xlink="http://www.w3.org/1999/xlink"><linearGradient id="a"><stop offset="0" stop-color="#fff"/><stop offset="0" stop-color="#fff" stop-opacity=".235"/><stop offset="1" stop-color="#fff" stop-opacity=".157"/><stop offset="1" stop-color="#fff" stop-opacity=".392"/></linearGradient><linearGradient id="b"><stop offset="0"/><stop offset="1" stop-opacity="0"/></linearGradient><linearGradient id="c" gradientTransform="matrix(.3746 0 0 .37083 29.393 2.44)" gradientUnits="userSpaceOnUse" x1="-51.786" x2="-51.786" y1="50.786" y2="2.906"><stop offset="0" stop-opacity=".318"/><stop offset="1" stop-opacity=".24"/></linearGradient><linearGradient id="d" gradientTransform="matrix(.66892 0 0 .4054 -1.18 3.27)" gradientUnits="userSpaceOnUse" x1="24" x2="24" xlink:href="#a" y1="6.733" y2="41.267"/><linearGradient id="e" gradientTransform="matrix(.5135 0 0 .4054 -.325 3.27)" gradientUnits="userSpaceOnUse" x1="37.633" x2="37.633" xlink:href="#a" y1="6.733" y2="41.267"/><linearGradient id="f" gradientTransform="matrix(.45714 0 0 .34765 3.03 4.123)" gradientUnits="userSpaceOnUse" x1="25.132" x2="25.132" y1=".985" y2="47.013"><stop offset="0" stop-color="#f4f4f4"/><stop offset="1" stop-color="#dbdbdb"/></linearGradient><radialGradient id="g" cx="605.714" cy="486.648" gradientTransform="matrix(.01325 0 0 .00824 13.363 17.98)" gradientUnits="userSpaceOnUse" r="117.143" xlink:href="#b"/><radialGradient id="h" cx="605.714" cy="486.648" gradientTransform="matrix(-.01325 0 0 .00824 10.637 17.98)" gradientUnits="userSpaceOnUse" r="117.143" xlink:href="#b"/><linearGradient id="i" gradientTransform="matrix(.03873 0 0 .00824 -1.997 17.98)" gradientUnits="userSpaceOnUse" x1="302.857" x2="302.857" y1="366.648" y2="609.505"><stop offset="0" stop-opacity="0"/><stop offset=".5"/><stop offset="1" stop-opacity="0"/></linearGradient><linearGradient id="j" gradientUnits="userSpaceOnUse" x1="4" x2="4" y1="4.559" y2="21.517"><stop offset="0" stop-color="#ffa154"/><stop offset="1" stop-color="#f37329"/></linearGradient><radialGradient id="k" cx="65.297" cy="48.216" gradientTransform="matrix(0 .52545 -.57163 0 46.193 -21.124)" gradientUnits="userSpaceOnUse" r="31"><stop offset="0" stop-color="#cdf87e"/><stop offset=".262" stop-color="#a2e34f"/><stop offset=".661" stop-color="#68b723"/><stop offset="1" stop-color="#1d7e0d"/></radialGradient><linearGradient id="l" gradientTransform="matrix(.2818 0 0 .2801 12.197 12.015)" gradientUnits="userSpaceOnUse" x1="24.139" x2="24.139" xlink:href="#a" y1="10.631" y2="35.623"/><linearGradient id="m" gradientTransform="matrix(.2818 0 0 .2801 12.18 12.022)" gradientUnits="userSpaceOnUse" x1="24.139" x2="24.139" xlink:href="#a" y1="21.342" y2="24.912"/><path d="m2.65 21h18.7v2h-18.7z" fill="url(#i)" opacity=".15"/><path d="m2.65 21v2c-.683.004-1.65-.448-1.65-1s.762-1 1.65-1z" fill="url(#h)" opacity=".15"/><path d="m21.35 21v2c.683.004 1.65-.448 1.65-1s-.762-1-1.65-1z" fill="url(#g)" opacity=".15"/><path d="m5 5h17v16h-17z" fill="url(#f)"/><path d="m21.5 20.5h-19v-15h19z" fill="none" stroke="url(#e)" stroke-linecap="square"/><path d="m2 4.5c-.277 0-.5.223-.5.5v16c0 .277.223.5.5.5h3v-17z" fill="url(#j)"/><g fill="none"><path d="m4.5 20.5h-2v-15h2" opacity=".5" stroke="url(#d)" stroke-linecap="square"/><path d="m6 7.5h4m1 0h2m1 0h1m1 0h2m-12 4h2m-2 2h1m-1 2h2m-2 2h2m0-4h1m0 4h1" stroke="#aaa"/><g stroke-linejoin="round"><path d="m5 21.5h17.5v-17h-17.5" stroke="url(#c)"/><path d="m5 21.5h-3.5v-17h3.5" opacity=".4" stroke="#cc3b02"/></g></g><g fill="url(#j)"><path d="m20 14a4 4 0 1 1 -2.116-3.53l-1.884 3.53z" opacity=".5"/><path d="m20 14.012c0 1.734-1.26 3.392-2.933 3.854-1.67.463-3.605-.31-4.497-1.798-.007.007 3.43-2.056 3.43-2.056z" opacity=".5"/><path d="m20 14c0 1.734-1.26 3.392-2.933 3.855-.04-.007-1.067-3.855-1.067-3.855z"/></g><path d="m16.482 16.507v-3h4v3h3v4h-3v3h-4v-3h-2.99v-4z" fill="url(#k)"/><g fill="none"><path d="m17.5 18.004v-3.504h2v3.5m0 1v3.5h-2v-3.5" opacity=".5" stroke="url(#l)"/><path d="m16.482 16.507v-3h4v3h3v4h-3v3h-4v-3h-2.99v-4z" opacity=".5" stroke="#0f5a00" stroke-linecap="round" stroke-linejoin="round"/><path d="m20 17.507 2.482-.007v2l-2.482.007m-3 0-2.5-.007v-2l2.5.007" opacity=".5" stroke="url(#m)"/></g></svg>

<svg xmlns="http://www.w3.org/2000/svg" xmlns:xlink="http://www.w3.org/1999/xlink" height="24" width="24"><defs><linearGradient id="a"><stop offset="0" stop-opacity=".318"/><stop offset="1" stop-opacity=".24"/></linearGradient><linearGradient id="b"><stop offset="0" stop-color="#fff"/><stop offset="0" stop-color="#fff" stop-opacity=".235"/><stop offset="1" stop-color="#fff" stop-opacity=".157"/><stop offset="1" stop-color="#fff" stop-opacity=".392"/></linearGradient><linearGradient id="c"><stop offset="0" stop-color="#fff"/><stop offset="0" stop-color="#fff" stop-opacity=".235"/><stop offset="1" stop-color="#fff" stop-opacity=".157"/><stop offset="1" stop-color="#fff" stop-opacity=".392"/></linearGradient><linearGradient id="d"><stop offset="0" stop-color="#f4f4f4"/><stop offset="1" stop-color="#dbdbdb"/></linearGradient><linearGradient id="e"><stop offset="0"/><stop offset="1" stop-opacity="0"/></linearGradient><linearGradient id="f"><stop offset="0" stop-opacity="0"/><stop offset=".5"/><stop offset="1" stop-opacity="0"/></linearGradient><linearGradient id="g"><stop offset="0" stop-color="#f4f4f4"/><stop offset="1" stop-color="#dbdbdb"/></linearGradient><linearGradient y2="2.906" x2="-51.786" y1="50.786" x1="-51.786" gradientTransform="matrix(.3746 0 0 .37083 29.393 2.44)" gradientUnits="userSpaceOnUse" id="t" xlink:href="#a"/><linearGradient y2="41.267" x2="24" y1="6.733" x1="24" gradientTransform="matrix(.66892 0 0 .4054 -1.18 3.27)" gradientUnits="userSpaceOnUse" id="s" xlink:href="#b"/><linearGradient y2="41.267" x2="37.633" y1="6.733" x1="37.633" gradientTransform="matrix(.5135 0 0 .4054 -.325 3.27)" gradientUnits="userSpaceOnUse" id="q" xlink:href="#c"/><linearGradient y2="47.013" x2="25.132" y1=".985" x1="25.132" gradientTransform="matrix(.45714 0 0 .34765 3.03 4.123)" gradientUnits="userSpaceOnUse" id="p" xlink:href="#d"/><radialGradient r="117.143" fy="486.648" fx="605.714" cy="486.648" cx="605.714" gradientTransform="matrix(.01325 0 0 .00824 13.363 17.98)" gradientUnits="userSpaceOnUse" id="o" xlink:href="#e"/><radialGradient r="117.143" fy="486.648" fx="605.714" cy="486.648" cx="605.714" gradientTransform="matrix(-.01325 0 0 .00824 10.637 17.98)" gradientUnits="userSpaceOnUse" id="n" xlink:href="#e"/><linearGradient y2="609.505" x2="302.857" y1="366.648" x1="302.857" gradientTransform="matrix(.03873 0 0 .00824 -1.997 17.98)" gradientUnits="userSpaceOnUse" id="m" xlink:href="#f"/><linearGradient id="h"><stop offset="0" stop-opacity=".318"/><stop offset="1" stop-opacity=".24"/></linearGradient><linearGradient id="i"><stop offset="0" stop-color="#ffa154"/><stop offset="1" stop-color="#f37329"/></linearGradient><linearGradient gradientUnits="userSpaceOnUse" y2="21.517" x2="4" y1="4.559" x1="4" id="r" xlink:href="#i"/><radialGradient gradientTransform="matrix(0 .52545 -.57163 0 46.193 -21.124)" gradientUnits="userSpaceOnUse" xlink:href="#j" id="u" fy="48.216" fx="65.297" r="31" cy="48.216" cx="65.297"/><linearGradient id="j"><stop offset="0" stop-color="#cdf87e"/><stop offset=".262" stop-color="#a2e34f"/><stop offset=".661" stop-color="#68b723"/><stop offset="1" stop-color="#1d7e0d"/></linearGradient><linearGradient gradientTransform="matrix(.2818 0 0 .2801 12.197 12.015)" gradientUnits="userSpaceOnUse" xlink:href="#k" id="v" y2="35.623" x2="24.139" y1="10.631" x1="24.139"/><linearGradient id="k"><stop offset="0" stop-color="#fff"/><stop offset="0" stop-color="#fff" stop-opacity=".235"/><stop offset="1" stop-color="#fff" stop-opacity=".157"/><stop offset="1" stop-color="#fff" stop-opacity=".392"/></linearGradient><linearGradient gradientTransform="matrix(.2818 0 0 .2801 12.18 12.022)" gradientUnits="userSpaceOnUse" xlink:href="#l" id="w" y2="24.912" x2="24.139" y1="21.342" x1="24.139"/><linearGradient id="l"><stop offset="0" stop-color="#fff"/><stop offset="0" stop-color="#fff" stop-opacity=".235"/><stop offset="1" stop-color="#fff" stop-opacity=".157"/><stop offset="1" stop-color="#fff" stop-opacity=".392"/></linearGradient></defs><path opacity=".15" fill="url(#m)" overflow="visible" d="M2.65 21h18.7v2H2.65z"/><path d="M2.65 21v2c-.683.004-1.65-.448-1.65-1s.762-1 1.65-1z" opacity=".15" fill="url(#n)" overflow="visible"/><path d="M21.35 21v2c.683.004 1.65-.448 1.65-1s-.762-1-1.65-1z" opacity=".15" fill="url(#o)" overflow="visible"/><path d="M5 5h17v16H5V5z" fill="url(#p)"/><path d="M21.5 20.5h-19v-15h19z" fill="none" stroke="url(#q)" stroke-linecap="square"/><path d="M2 4.5c-.277 0-.5.223-.5.5v16c0 .277.223.5.5.5h3v-17z" color="#000" fill="url(#r)" overflow="visible"/><path d="M4.5 20.5h-2v-15h2" opacity=".5" fill="none" stroke="url(#s)" stroke-linecap="square"/><path d="M6 7.5h4M11 7.5h2M14 7.5h1M16 7.5h2M6 11.5h2M6 13.5h1M6 15.5h2M6 17.5h2M8 13.5h1M9 17.5h1" fill="none" stroke="#aaa"/><path d="M5 21.5h17.5v-17H5" color="#000" overflow="visible" fill="none" stroke="url(#t)" stroke-linejoin="round"/><path d="M5 21.5H1.5v-17H5" style="font-variant-east_asian:normal" opacity=".4" color="#000" fill="none" stroke="#cc3b02" stroke-linejoin="round" overflow="visible"/><path d="M20 14a4 4 0 1 1-2.116-3.53L16 14z" style="isolation:auto;mix-blend-mode:normal;font-variant-east_asian:normal" color="#000" overflow="visible" opacity=".5" solid-color="#000000" fill="url(#r)"/><path style="isolation:auto;mix-blend-mode:normal;font-variant-east_asian:normal" d="M20 14.012c0 1.734-1.26 3.392-2.933 3.854-1.67.463-3.605-.31-4.497-1.798-.007.007 3.43-2.056 3.43-2.056z" color="#000" overflow="visible" opacity=".5" solid-color="#000000" fill="url(#r)"/><path style="isolation:auto;mix-blend-mode:normal;font-variant-east_asian:normal" d="M20 14c0 1.734-1.26 3.392-2.933 3.855C17.027 17.848 16 14 16 14z" color="#000" overflow="visible" solid-color="#000000" fill="url(#r)"/><path d="M16.482 16.507v-3h4v3h3v4h-3v3h-4v-3h-2.99v-4z" color="#000" overflow="visible" fill="url(#u)"/><path d="M17.5 18.004V14.5h2V18m0 1v3.5h-2V19" opacity=".5" fill="none" stroke="url(#v)"/><path d="M16.482 16.507v-3h4v3h3v4h-3v3h-4v-3h-2.99v-4z" style="isolation:auto;mix-blend-mode:normal" color="#000" overflow="visible" opacity=".5" solid-color="#000000" fill="none" stroke="#0f5a00" stroke-linecap="round" stroke-linejoin="round"/><path d="M20 17.507l2.482-.007v2L20 19.507m-3 0l-2.5-.007v-2l2.5.007" opacity=".5" fill="none" stroke="url(#w)"/></svg>
